docs/img/icons/arrow-left.svg

<svg width="40" height="40" viewBox="0 0 40 40" fill="none" xmlns="http://www.w3.org/2000/svg">
    <path d="M0 20C0 8.95431 8.95431 0 20 0C31.0457 0 40 8.95431 40 20C40 31.0457 31.0457 40 20 40C8.95431 40 0 31.0457 0 20Z" fill="white"/>
    <path fill-rule="evenodd" clip-rule="evenodd" d="M23.7071 12.2929C24.0976 12.6834 24.0976 13.3166 23.7071 13.7071L17.4142 20L23.7071 26.2929C24.0976 26.6834 24.0976 27.3166 23.7071 27.7071C23.3166 28.0976 22.6834 28.0976 22.2929 27.7071L15.2929 20.7071C14.9024 20.3166 14.9024 19.6834 15.2929 19.2929L22.2929 12.2929C22.6834 11.9024 23.3166 11.9024 23.7071 12.2929Z" fill="black"/>
</svg>

<svg width="40" height="40" fill="none" xmlns="http://www.w3.org/2000/svg"><path d="M0 20C0 8.954 8.954 0 20 0s20 8.954 20 20-8.954 20-20 20S0 31.046 0 20z" fill="#fff"/><path fill-rule="evenodd" clip-rule="evenodd" d="M23.707 12.293a1 1 0 010 1.414L17.414 20l6.293 6.293a1 1 0 01-1.414 1.414l-7-7a1 1 0 010-1.414l7-7a1 1 0 011.414 0z" fill="#000"/></svg>
